X:4
T:Marquis of Huntly's Birthday
C:Robert Petrie
S:Petrie's Third Collection of Strathspey Reels &c.
Z:Steve Wyrick , 7/30/05
N:Petrie's Third Collection, page 3
L:1/8
M:C
R:Strathspey
K:F
a|f<ca>f g2 df|cf b/a/g/f/ gGGg|f<ca>f d<gb>g|a>f a/g/f/e/f2 fa|f<ca>f Tg2 df|
cf b/a/g/f/ gGGg fcAc (3def (3efg|(3fga Tc>B AFF||c/B/|A<FC<F E<GG<B|A<FC<F A,<FC<F|
A,<FC<F E<GG<B|AF A/G/F/E/ F2 Fc/B/|A<FC<F (E<GG<B)|A<FC<F A,<FC<F|A<Fc<F E<GG<B|cf e/f/g/e/ f2f|]
